X:11
%%etbk:tnset id:4,pos:3,rep:3x,ant:
%%etbk:wsite http://www.thesession.org/tunes/display/1004
%%etbk:video src:ytube,cde:SZ6S64ZLl7Y,desc:second tune
%%etbk:color #ffccbf
%%etbk:pldat 2016-09-16T17:33,2016-09-13T17:37,2016-08-17T17:27,2016-07-29T16:20,2016-07-23T17:16,2016-07-22T16:41,2016-07-15T14:28,2016-07-12T15:55,2016-07-09T14:25,2016-07-07T15:07,2016-07-05T17:05,2016-06-21T17:15,2016-06-18T16:39,2016-06-14T16:54,2016-06-13T18:02,2016-06-12T15:40,2016-06-01T18:08,2016-05-31T18:39,2016-05-30T19:16,2016-05-29T14:29,2016-05-26T18:50,2016-05-25T15:16,2016-05-24T15:12,2016-05-23T19:28,2016-05-15T17:25,2016-04-17T15:56,2016-04-12T16:15,2016-03-22T17:07,2016-03-17T17:54,2016-03-16T17:17,2016-03-15T17:20,2016-03-14T18:22,2015-03-27T17:51,2015-01-25T17:26,2015-01-17T15:23,2014-12-11T18:12,2014-11-24T16:04,2014-10-12T15:01,2014-09-24T16:36,2014-09-13T13:41,2014-06-11T16:59,2014-04-27T17:07,2014-04-08T17:27,2014-03-26T16:38,2014-03-14T17:59,2014-02-08T15:11,2014-02-05T15:07,2013-12-11T18:13,2013-11-21T18:00,2013-11-13T17:36,2013-11-04T18:46,2013-10-24T18:59,2013-10-08T15:09,2013-09-01T15:32,2013-05-15T17:29
T: Tempest, The
Z: Piano Box Version by Martin Fleischmann
H: Created 2013-02-19 /  Last Modified 2016-05-15
M: 4/4
L: 1/8
R: Reel
K: Ddor
|:!5!d2 !4!c!3!A !2!G!1!E EE|!3!A!1!E!4!c!1!E !5!d!1!E!4!c!1!E|!5!d2 cA !2!G!1!E!4!c!1!E|!3!E!2!D!1!C!2!D !3!E!1!D D2|
!5!d2 !4!c!3!A !2!G!1!E EE|!3!A!1!E!4!c!1!E !5!d!1!E!4!c!1!E|!5!d2 cA !2!G!1!E!4!c!1!E|!3!E!2!D!1!C!2!D !3!E!1!D D2:|
|:!3!d2 !4!e!3!d !2!c!1!A!1!G!2!c|!1!A!3!d!2!c!1!A !2!G!1!EEE|!3!d2 ed !2!cde!5!g|ed!2!c!1!A !3!d2 !5!a!4!g|
!2!e!5!age !1!d!3!c!1!A!2!B|!3!c!1!A!2!G!5!c !3!A!1!E!2!G!1!E|!1!DEFA GEcE|EDCD ED D2:|


